**kern	**silbe
*ICvox	*
=1	=1
*D-:	*
*M4/4	*
*clefG2	*
1r	.
=2	=2
1r	.
=3	=3
1r	.
=4	=4
2r	.
4r	.
4a-	I
=5	=5
2dd-	want
4.cc	you
8cc	to
=6	=6
4b-	tell
4a-	me
4g	why
4a-	you
=7	=7
4r	.
4b-	walked
8.f	out
8.f	on
[8f	me
=8	=8
2f]	_
2r	.
=9	=9
2.dd-	I'm
4cc	so
=10	=10
4b-	lone-
4a-	-some
4.cc	ev-
[8a-	-ery
=11	=11
4a-]	_
4g-	day
[2a-	_
=12	=12
2.a-]	_
4a-	I
=13	=13
2ee-	want
4.dd-	you
8dd-	to
=14	=14
4cc	know
4a-	that
4g	since
4a-	you
=15	=15
4r	.
4b-	walked
8.a-	out
8.b-	on
[8a-	me
=16	=16
2a-]	_
2r	.
=17	=17
4b-	No-
4cc	-thin'
4.a-	seems
[8cc	to
=18	=18
8cc]	_
4a-	be
4b-	the
4g-	same
[8a-	old
=19	=19
8a-]	_
[8f	way
2.f]	_
=20	=20
1r	.
=21	=21
4.dd-	Think
8dd-	a-
4.cc	-bout
8cc	the
=22	=22
4b-	love
4a-	that
4g	burns
8a-	with
[8b-	in
=23	=23
4b-]	_
8f	my
[8f	heart
4f]	_
8e	for
[8f	you
=24	=24
2f]	_
8r	.
8f	The
4e-	good
=25	=25
4d-	times
4e-	we
4f	had
8r	.
[8a-	be
=26	=26
8a-]	_
4a-	fore
8a-	you
4.a-	went
8a-	a-
=27	=27
2b-	-way
2a-	oh
=28	=28
2.g-	me
4r	.
=29	=29
4g-	Walk
4ee-	right
4.ee-	back
8ee-	to
=30	=30
4ee-	me
4dd-	this
8cc	mi-
8b-	-nute
4r	.
=31	=31
8r	.
4dd-	Bring
8dd-	your
4dd-	love
8r	.
8dd-	to
=32	=32
8dd-	me
4.cc	don't
4b-	sent
4a-	it
=33	=33
2cc	I'm
2b-	so
=34	=34
4a-	lone-
4g-	-some
4b-	ev-
4c	-ery
=35	=35
1d-	day
=36	=36
1r	.
=37	=37
1r	.
=38	=38
2r	.
4r	.
4a-	I
=39	=39
2dd-	want
4.cc	you
8cc	to
=40	=40
4b-	tell
4a-	me
4g	why
4a-	you
=41	=41
4r	.
4b-	walked
8.f	out
8.f	on
[8f	me
=42	=42
2f]	_
2r	.
=43	=43
2.dd-	I'm
4cc	so
=44	=44
4b-	lone-
4a-	-some
4.cc	ev-
[8a-	-ery
=45	=45
4a-]	_
4g-	day
[2a-	_
=46	=46
2.a-]	_
4a-	I
=47	=47
2ee-	want
4.dd-	you
8dd-	to
=48	=48
4cc	know
4a-	that
4g	since
4a-	you
=49	=49
4r	.
4b-	walked
8.a-	out
8.b-	on
[8a-	me
=50	=50
2a-]	_
2r	.
=51	=51
4b-	No-
4cc	-thin'
4.a-	seems
[8cc	to
=52	=52
8cc]	_
4a-	be
4b-	the
4g-	same
[8a-	old
=53	=53
8a-]	_
[8f	way
2.f]	_
=54	=54
1r	.
=55	=55
4.dd-	Think
8dd-	a-
4.cc	-bout
8cc	the
=56	=56
4b-	love
4a-	that
4g	burns
8a-	with-
[8b-	-in
=57	=57
4b-]	_
8f	my
[8f	heart
4f]	_
8e	for
[8f	you
=58	=58
2f]	_
8r	.
8f	The
4e-	good
=59	=59
4d-	times
4e-	we
4f	had
8r	.
[8a-	be
=60	=60
8a-]	_
4a-	fore
8a-	you
4.a-	went
8a-	a-
=61	=61
2b-	-way
2a-	Oh
=62	=62
2.g-	me
4r	.
=63	=63
4g-	Walk
4ee-	right
4.ee-	back
8ee-	to
=64	=64
4ee-	me
4dd-	this
8cc	mi-
8b-	-nute
4r	.
=65	=65
8r	.
4dd-	Bring
8dd-	your
4dd-	love
8r	.
8dd-	to
=66	=66
8dd-	me
4.cc	don't
4b-	send
4a-	it
=67	=67
2cc	I'm
2b-	so
=68	=68
4a-	lone-
4g-	-some
4b-	ev-
4c	-ery
=69	=69
1d-	day
=70	=70
1r	.
=71	=71
2cc	I'm
2b-	so
=72	=72
4a-	lone-
4g-	-some
4b-	ev-
4c	-ery
=73	=73
1d-	day
=74	=74
1r	.
*-	*-
!!!ENC: Nathaniel Condit-Schultz